X: 1
T: the Sweetness of Mary
C: Joan MacDonald Boes PEI
S: handwritten copy from Barbara McOwen, in from Concord Slow Scottish Session collection
R: march
Z: 2015 John Chambers <jc:trillian.mit.edu>
M: 4/4
L: 1/8
K: A
"A"[|] (AB) |\
"A"c3 B/A/ "D"F3 A/B/ | "A"c>e "D"d<f "E7"e2 (3efg |\
"A"(a>g) (f>e) "F#m"e>d c>d | "Bm7"e<a c<A "E7"B2 (AB) |
"A"c3 B/A/ "D"F3 A/B/ | "A"c>e "D"d<f "E7"e2 (3efg |\
"A"(a>g f)>e "F#m"(e>d) c>d | "Bm"e<a "E7"c>B "A"A2 :|
"B" (a>b) |\
"A"c'>e a<c' "E7"b>e g<b | "D"a>g f<a "A7"e2 c2 |\
"D"f>A d<f "A"e>d c>d | "F#m"e<a "B7"c<A "E7"B>e a>b |
"A"c'>e a<c' "E7"b>e g<b | "D"a>g f<a "A7"e2 c2 |\
"D"f>A d<f "A"e>d c>d | "Bm"e<a "E7"c>B "A"A2 :|
